X: 1
T:Kick the Buckett. WCl.28
M:9/8
L:1/8
Q:110
S:William Clarke MS,Lincoln,1770.
R:Slip Jig
O:Lincoln
A:England
N:Best Title of the Month Award, Jan, 2003.....Key may be better as Gmaj,
N:but who are we...
Z:vmp.Barry Callaghan
K:D
"Key as in MS, try one sharp"c|Bcd dBG G2 B|cde ecA A2 c|Bcd dBG c2 B|AB
A AFD D2::!
c|dGF EFE E2 c|BGE DED D2 c|BGF GAB A2 A| ABA  AFD D2:||
